img/svgicons/dinner-table.svg

<svg width="49" height="49" viewBox="0 0 49 49" fill="none" xmlns="http://www.w3.org/2000/svg">
<path d="M2.29688 13.7812H5.35938C5.56243 13.7812 5.75717 13.8619 5.90075 14.0055C6.04434 14.1491 6.125 14.3438 6.125 14.5469V30.625H12.25C12.6561 30.625 13.0456 30.7863 13.3328 31.0735C13.6199 31.3607 13.7812 31.7501 13.7812 32.1562V33.6875C13.9843 33.6875 14.179 33.7682 14.3226 33.9117C14.4662 34.0553 14.5469 34.2501 14.5469 34.4531V36.75C14.5469 36.9531 14.4662 37.1478 14.3226 37.2914C14.179 37.435 13.9843 37.5156 13.7812 37.5156H13.0156V46.7031C13.0156 46.9062 12.935 47.1009 12.7914 47.2445C12.6478 47.3881 12.4531 47.4688 12.25 47.4688H9.95312C9.75007 47.4688 9.55533 47.3881 9.41175 47.2445C9.26816 47.1009 9.1875 46.9062 9.1875 46.7031V37.5156H5.35938V46.7031C5.35938 46.9062 5.27871 47.1009 5.13513 47.2445C4.99155 47.3881 4.79681 47.4688 4.59375 47.4688H2.29688C2.09382 47.4688 1.89908 47.3881 1.7555 47.2445C1.61191 47.1009 1.53125 46.9062 1.53125 46.7031V14.5469C1.53125 14.3438 1.61191 14.1491 1.7555 14.0055C1.89908 13.8619 2.09382 13.7812 2.29688 13.7812ZM13.0156 35.9844V35.2188H3.0625V35.9844H13.0156ZM12.25 32.1562H6.125V32.9219H4.59375V15.3125H3.0625V33.6875H12.25V32.1562ZM10.7188 45.9375H11.4844V37.5156H10.7188V45.9375ZM3.0625 45.9375H3.82812V37.5156H3.0625V45.9375Z" fill="#C4C4C4"/>
<path d="M15.3125 29.8594C14.9064 29.8594 14.5169 29.698 14.2297 29.4109C13.9426 29.1237 13.7812 28.7342 13.7812 28.3281V27.5625H13.0156C12.8126 27.5625 12.6178 27.4818 12.4742 27.3383C12.3307 27.1947 12.25 26.9999 12.25 26.7969V25.2656C12.25 24.6565 12.492 24.0722 12.9227 23.6415C13.3535 23.2107 13.9377 22.9688 14.5469 22.9688H16.3706C16.0399 22.6841 15.7742 22.3317 15.5917 21.9354C15.4091 21.5391 15.3139 21.1082 15.3125 20.6719H13.7812V19.1406H15.3125V18.375C15.3125 18.1719 15.3932 17.9772 15.5367 17.8336C15.6803 17.69 15.8751 17.6094 16.0781 17.6094H20.6719C20.8749 17.6094 21.0697 17.69 21.2133 17.8336C21.3568 17.9772 21.4375 18.1719 21.4375 18.375V20.6719C21.4361 21.1082 21.3409 21.5391 21.1583 21.9354C20.9758 22.3317 20.7101 22.6841 20.3794 22.9688H28.6206C28.2899 22.6841 28.0242 22.3317 27.8417 21.9354C27.6591 21.5391 27.5639 21.1082 27.5625 20.6719V18.375C27.5625 18.1719 27.6432 17.9772 27.7867 17.8336C27.9303 17.69 28.1251 17.6094 28.3281 17.6094H32.9219C33.1249 17.6094 33.3197 17.69 33.4633 17.8336C33.6068 17.9772 33.6875 18.1719 33.6875 18.375V19.1406H35.2188V20.6719H33.6875C33.6861 21.1082 33.5909 21.5391 33.4083 21.9354C33.2258 22.3317 32.9601 22.6841 32.6294 22.9688H34.4531C35.0623 22.9688 35.6465 23.2107 36.0773 23.6415C36.508 24.0722 36.75 24.6565 36.75 25.2656V26.7969C36.75 26.9999 36.6693 27.1947 36.5258 27.3383C36.3822 27.4818 36.1874 27.5625 35.9844 27.5625H35.2188V28.3281C35.2188 28.7342 35.0574 29.1237 34.7703 29.4109C34.4831 29.698 34.0936 29.8594 33.6875 29.8594H26.7969V42.875H27.5625C27.7656 42.875 27.9603 42.9557 28.1039 43.0992C28.2475 43.2428 28.3281 43.4376 28.3281 43.6406V45.9375H31.3906V47.4688H17.6094V45.9375H20.6719V43.6406C20.6719 43.4376 20.7525 43.2428 20.8961 43.0992C21.0397 42.9557 21.2344 42.875 21.4375 42.875H22.2031V29.8594H15.3125ZM19.9062 19.1406H16.8438V20.6719C16.8438 21.078 17.0051 21.4675 17.2922 21.7546C17.5794 22.0418 17.9689 22.2031 18.375 22.2031C18.7811 22.2031 19.1706 22.0418 19.4578 21.7546C19.7449 21.4675 19.9062 21.078 19.9062 20.6719V19.1406ZM32.1562 19.1406H29.0938V20.6719C29.0938 21.078 29.2551 21.4675 29.5422 21.7546C29.8294 22.0418 30.2189 22.2031 30.625 22.2031C31.0311 22.2031 31.4206 22.0418 31.7078 21.7546C31.9949 21.4675 32.1562 21.078 32.1562 20.6719V19.1406ZM35.2188 25.2656C35.2188 25.0626 35.1381 24.8678 34.9945 24.7242C34.8509 24.5807 34.6562 24.5 34.4531 24.5H14.5469C14.3438 24.5 14.1491 24.5807 14.0055 24.7242C13.8619 24.8678 13.7812 25.0626 13.7812 25.2656V26.0312H35.2188V25.2656ZM33.6875 27.5625H15.3125V28.3281H33.6875V27.5625ZM26.7969 45.9375V44.4062H22.2031V45.9375H26.7969ZM23.7344 42.875H25.2656V29.8594H23.7344V42.875Z" fill="#C4C4C4"/>
<path d="M35.2188 33.6875V32.1562C35.2188 31.7501 35.3801 31.3607 35.6672 31.0735C35.9544 30.7863 36.3439 30.625 36.75 30.625H42.875V14.5469C42.875 14.3438 42.9557 14.1491 43.0992 14.0055C43.2428 13.8619 43.4376 13.7812 43.6406 13.7812H46.7031C46.9062 13.7812 47.1009 13.8619 47.2445 14.0055C47.3881 14.1491 47.4688 14.3438 47.4688 14.5469V46.7031C47.4688 46.9062 47.3881 47.1009 47.2445 47.2445C47.1009 47.3881 46.9062 47.4688 46.7031 47.4688H44.4062C44.2032 47.4688 44.0085 47.3881 43.8649 47.2445C43.7213 47.1009 43.6406 46.9062 43.6406 46.7031V37.5156H39.8125V46.7031C39.8125 46.9062 39.7318 47.1009 39.5883 47.2445C39.4447 47.3881 39.2499 47.4688 39.0469 47.4688H36.75C36.5469 47.4688 36.3522 47.3881 36.2086 47.2445C36.065 47.1009 35.9844 46.9062 35.9844 46.7031V37.5156H35.2188C35.0157 37.5156 34.821 37.435 34.6774 37.2914C34.5338 37.1478 34.4531 36.9531 34.4531 36.75V34.4531C34.4531 34.2501 34.5338 34.0553 34.6774 33.9117C34.821 33.7682 35.0157 33.6875 35.2188 33.6875ZM45.9375 15.3125H44.4062V32.9219H42.875V32.1562H36.75V33.6875H45.9375V15.3125ZM45.1719 45.9375H45.9375V37.5156H45.1719V45.9375ZM37.5156 45.9375H38.2812V37.5156H37.5156V45.9375ZM35.9844 35.9844H45.9375V35.2188H35.9844V35.9844Z" fill="#C4C4C4"/>
</svg>

<svg width="49" height="49" fill="none" xmlns="http://www.w3.org/2000/svg"><path d="M2.297 13.781h3.062a.766.766 0 0 1 .766.766v16.078h6.125a1.531 1.531 0 0 1 1.531 1.531v1.532a.766.766 0 0 1 .766.765v2.297a.766.766 0 0 1-.766.766h-.765v9.187a.766.766 0 0 1-.766.766H9.953a.766.766 0 0 1-.765-.766v-9.187H5.358v9.187a.766.766 0 0 1-.765.766H2.297a.766.766 0 0 1-.766-.766V14.547a.766.766 0 0 1 .766-.766Zm10.719 22.203v-.765H3.062v.765h9.954Zm-.766-3.828H6.125v.766H4.594v-17.61H3.062v18.376h9.188v-1.532Zm-1.531 13.782h.765v-8.422h-.765v8.422Zm-7.656 0h.765v-8.422h-.765v8.422Z" fill="#C4C4C4"/><path d="M15.313 29.86a1.532 1.532 0 0 1-1.532-1.532v-.765h-.765a.766.766 0 0 1-.766-.766v-1.531a2.297 2.297 0 0 1 2.297-2.297h1.824a3.044 3.044 0 0 1-1.058-2.297H13.78V19.14h1.531v-.766a.766.766 0 0 1 .766-.766h4.594a.766.766 0 0 1 .765.766v2.297a3.043 3.043 0 0 1-1.058 2.297h8.242a3.044 3.044 0 0 1-1.058-2.297v-2.297a.766.766 0 0 1 .765-.766h4.594a.766.766 0 0 1 .766.766v.766h1.53v1.53h-1.53a3.043 3.043 0 0 1-1.059 2.298h1.824a2.297 2.297 0 0 1 2.297 2.297v1.53a.766.766 0 0 1-.766.767h-.765v.765a1.532 1.532 0 0 1-1.532 1.531h-6.89v13.016h.765a.766.766 0 0 1 .766.766v2.297h3.063v1.53H17.609v-1.53h3.063V43.64a.766.766 0 0 1 .765-.766h.766V29.859h-6.89Zm4.593-10.72h-3.062v1.532a1.531 1.531 0 1 0 3.062 0V19.14Zm12.25 0h-3.062v1.532a1.531 1.531 0 1 0 3.062 0V19.14Zm3.063 6.126a.766.766 0 0 0-.766-.766H14.547a.766.766 0 0 0-.766.766v.765H35.22v-.765Zm-1.532 2.297H15.314v.765h18.374v-.765Zm-6.89 18.375v-1.532h-4.594v1.532h4.594Zm-3.063-3.063h1.532V29.859h-1.532v13.016Z" fill="#C4C4C4"/><path d="M35.219 33.688v-1.532a1.531 1.531 0 0 1 1.531-1.531h6.125V14.547a.766.766 0 0 1 .766-.766h3.062a.766.766 0 0 1 .766.766v32.156a.766.766 0 0 1-.766.766h-2.297a.766.766 0 0 1-.765-.766v-9.187h-3.828v9.187a.766.766 0 0 1-.766.766H36.75a.766.766 0 0 1-.766-.766v-9.187h-.765a.766.766 0 0 1-.766-.766v-2.297a.766.766 0 0 1 .766-.766Zm10.718-18.376h-1.53v17.61h-1.532v-.766H36.75v1.532h9.188V15.311Zm-.765 30.626h.766v-8.422h-.766v8.422Zm-7.656 0h.765v-8.422h-.765v8.422Zm-1.532-9.954h9.953v-.765h-9.953v.765Z" fill="#C4C4C4"/></svg>
